X:135 
T:Moig Cross Slide*, The 
F:file ID: cre.4/135moig_c
S:BPC < Barrett < Collins
B:CRE4.071: gan ainm [BB setting]. CRE
has this as A-B-A.
L:1/8
M:12/8
Q:180
R:jig
K:G
D|EDE AGE G2A B2d|EDE AGE G2E D3|
E3 AGE G2A B2d|e2d BAG A3 A2:|
d|e3 edB d3 dBd|e2e e2f g2e d2B|
c2c c2A B2B B2G|A2c B2A G2E D2|
P:repeat of first part
D|EDE AGE G2A B2d|EDE AGE G2E D3|
E3 AGE G2A B2d|e2d cAF G3G3-|G6||


%%%


